Numix/22/status/nm-tech-3g.svg

<?xml version="1.0" encoding="UTF-8" standalone="no"?>
<svg
   xmlns:dc="http://purl.org/dc/elements/1.1/"
   xmlns:cc="http://creativecommons.org/ns#"
   xmlns:rdf="http://www.w3.org/1999/02/22-rdf-syntax-ns#"
   xmlns:svg="http://www.w3.org/2000/svg"
   xmlns="http://www.w3.org/2000/svg"
   xmlns:sodipodi="http://sodipodi.sourceforge.net/DTD/sodipodi-0.dtd"
   xmlns:inkscape="http://www.inkscape.org/namespaces/inkscape"
   viewBox="0 0 22 22"
   id="svg3055"
   version="1.1"
   inkscape:version="0.91 r"
   width="100%"
   height="100%"
   sodipodi:docname="nm-tech-3g.svg">
  <metadata
     id="metadata3075">
    <rdf:RDF>
      <cc:Work
         rdf:about="">
        <dc:format>image/svg+xml</dc:format>
        <dc:type
           rdf:resource="http://purl.org/dc/dcmitype/StillImage" />
        <dc:title />
      </cc:Work>
    </rdf:RDF>
  </metadata>
  <defs
     id="defs3073" />
  <sodipodi:namedview
     pagecolor="#ffffff"
     bordercolor="#666666"
     borderopacity="1"
     objecttolerance="10"
     gridtolerance="10"
     guidetolerance="10"
     inkscape:pageopacity="0"
     inkscape:pageshadow="2"
     inkscape:window-width="1920"
     inkscape:window-height="1056"
     id="namedview3071"
     showgrid="true"
     inkscape:zoom="21.454545"
     inkscape:cx="1.5688104"
     inkscape:cy="13.194377"
     inkscape:window-x="0"
     inkscape:window-y="24"
     inkscape:window-maximized="1"
     inkscape:current-layer="svg3055">
    <inkscape:grid
       type="xygrid"
       id="grid4137" />
  </sodipodi:namedview>
  <path
     sodipodi:nodetypes="cccc"
     inkscape:connector-curvature="0"
     id="path4139"
     d="M 20,20 20,3.9999996 4,20 Z"
     style="fill:#ececec;fill-opacity:1;fill-rule:evenodd;stroke:none;stroke-width:1px;stroke-linecap:butt;stroke-linejoin:miter;stroke-opacity:1" />
  <g
     style="font-style:normal;font-variant:normal;font-weight:bold;font-stretch:normal;font-size:12.34567928px;line-height:125%;font-family:Ubuntu;-inkscape-font-specification:'Ubuntu Bold';letter-spacing:0px;word-spacing:0px;fill:#000000;fill-opacity:1;stroke:none;stroke-width:1px;stroke-linecap:butt;stroke-linejoin:miter;stroke-opacity:1"
     id="g4169"
     transform="matrix(-1,0,0,1,-12.253709,-14.565582)" />
  <g
     style="font-style:normal;font-variant:normal;font-weight:normal;font-stretch:normal;font-size:15.47987652px;line-height:125%;font-family:Ubuntu;-inkscape-font-specification:Ubuntu;letter-spacing:0px;word-spacing:0px;fill:#ececec;fill-opacity:1;stroke:none;stroke-width:1px;stroke-linecap:butt;stroke-linejoin:miter;stroke-opacity:1"
     id="text4155">
    <path
       d="m 2.6625387,10.999982 q -0.3560371,0 -0.7585139,-0.06192 Q 1.5170279,10.891623 1.1455108,10.814223 0.78947367,10.736824 0.47987614,10.643944 0.17027861,10.551065 -2.9087067e-8,10.473666 L 0.37151701,8.8792386 q 0.35603716,0.1547987 0.91331269,0.3250774 0.5727555,0.1702786 1.3622292,0.1702786 0.9752322,0 1.3622291,-0.4179567 0.4024768,-0.4179566 0.4024768,-1.0371517 0,-0.7585139 -0.6037152,-1.0526316 Q 3.2043344,6.5572571 2.2755418,6.5572571 l -0.5882353,0 0,-1.5789474 0.7120743,0 q 0.2941177,0 0.5882353,-0.061919 Q 3.2817338,4.8544707 3.5139319,4.7151518 3.7461301,4.5758329 3.885449,4.3436347 4.0402477,4.1114366 4.0402477,3.7553994 q 0,-0.5263158 -0.3250774,-0.8204334 -0.3095975,-0.3095976 -0.866873,-0.3095976 -0.5417957,0 -1.0835914,0.1857586 Q 1.2383901,2.9814056 0.85139318,3.2445635 L 0.17027861,1.8513746 Q 0.58823528,1.5727368 1.2693498,1.2940991 1.9659443,0.99998141 2.8328174,0.99998141 q 0.8049536,0 1.3931889,0.20123839 0.6037151,0.2012384 0.9907121,0.5727554 0.3869969,0.3560372 0.5727554,0.8513932 0.1857585,0.4953561 0.1857585,1.0681115 0,0.5727555 -0.3250774,1.0990713 -0.3250774,0.5263158 -0.8668731,0.8049535 0.7430341,0.3095976 1.1455109,0.9133128 0.4179566,0.6037151 0.4179566,1.4396285 0,0.6656347 -0.2167182,1.2229102 Q 5.9133128,9.7306318 5.4643964,10.148588 5.01548,10.551065 4.3188855,10.783263 3.6222911,10.999982 2.6625387,10.999982 Z"
       style="font-style:normal;font-variant:normal;font-weight:bold;font-stretch:normal;font-family:'Ubuntu Mono';-inkscape-font-specification:'Ubuntu Mono Bold';fill:#ececec;fill-opacity:1"
       id="path4140" />
  </g>
  <g
     style="font-style:normal;font-variant:normal;font-weight:normal;font-stretch:normal;font-size:15.47987652px;line-height:125%;font-family:Ubuntu;-inkscape-font-specification:Ubuntu;letter-spacing:0px;word-spacing:0px;fill:#ececec;fill-opacity:1;stroke:none;stroke-width:1px;stroke-linecap:butt;stroke-linejoin:miter;stroke-opacity:1"
     id="text4380"
     transform="matrix(1.0495652,0,0,1.0495652,-10.038526,-9.3369112)">
    <path
       d="m 19.930451,11.784195 c -0.26463,0.01281 -0.457796,0.04053 -0.767707,0.205822 -0.309911,0.165285 -0.568171,0.397718 -0.774778,0.697299 -0.196277,0.289251 -0.34168,0.685213 -0.433875,1.053697 -0.09699,0.387667 -0.159149,0.795263 -0.119363,1.192895 0.06055,0.605143 0.145386,1.278777 0.537746,1.743446 0.384492,0.455351 0.893576,0.805769 1.596041,0.805769 0.113634,0 0.07648,-0.0074 0.07648,-0.0074 l -2.4e-5,-3.339478 1.905951,0 0,4.571055 c -0.227267,0.08264 -0.576666,0.238122 -0.87971,0.305238 -0.411435,0.09112 -0.744278,0.128637 -1.257653,0.128637 -0.599161,0 -1.141505,-0.103304 -1.627032,-0.309911 -0.475197,-0.216937 -0.883246,-0.532013 -1.224148,-0.945228 -0.340902,-0.423544 -0.604326,-0.945227 -0.790273,-1.565049 -0.185946,-0.630153 -0.219098,-1.059211 -0.216115,-1.596087 0.0034,-0.60292 0.04567,-1.169803 0.262602,-1.789624 0.216938,-0.630153 0.511353,-1.157001 0.883246,-1.580546 0.371893,-0.423546 0.810934,-0.738622 1.317121,-0.945229 0.506189,-0.216938 0.833472,-0.240534 1.262956,-0.268412 0.325962,-0.02116 0.654231,0.0268 0.976828,0.07809 0.262299,0.0417 0.557839,0.113634 0.774777,0.185946 0.216937,0.07231 0.392553,0.149791 0.526848,0.232433 l 0.325407,0.185947 -0.495858,1.518565 C 21.56265,12.19744 21.28373,12.06831 20.953158,11.954676 20.607865,11.820733 20.275655,11.76748 19.930451,11.784195 Z"
       style="font-style:normal;font-variant:normal;font-weight:bold;font-stretch:normal;font-family:'Ubuntu Mono';-inkscape-font-specification:'Ubuntu Mono Bold';fill:#ececec;fill-opacity:1"
       id="path4403"
       inkscape:connector-curvature="0"
       sodipodi:nodetypes="ascaaasccccascccacscaascccca" />
  </g>
</svg>

<svg xmlns="http://www.w3.org/2000/svg" viewBox="0 0 22 22">
 <path d="m 20 20 0 -16 -16 16" style="fill:#ececec;fill-opacity:1;stroke:none;fill-rule:evenodd"/>
 <g style="fill:#ececec;fill-opacity:1;stroke:none">
  <path d="m 2.663 11 q -0.356 0 -0.759 -0.062 q -0.387 -0.046 -0.759 -0.124 -0.356 -0.077 -0.666 -0.17 -0.31 -0.093 -0.48 -0.17 l 0.372 -1.594 q 0.356 0.155 0.913 0.325 0.573 0.17 1.362 0.17 0.975 0 1.362 -0.418 0.402 -0.418 0.402 -1.037 0 -0.759 -0.604 -1.053 q -0.604 -0.31 -1.533 -0.31 l -0.588 0 0 -1.579 0.712 0 q 0.294 0 0.588 -0.062 q 0.294 -0.062 0.526 -0.201 0.232 -0.139 0.372 -0.372 0.155 -0.232 0.155 -0.588 q 0 -0.526 -0.325 -0.82 -0.31 -0.31 -0.867 -0.31 -0.542 0 -1.084 0.186 q -0.526 0.17 -0.913 0.433 l -0.681 -1.393 q 0.418 -0.279 1.099 -0.557 0.697 -0.294 1.563 -0.294 q 0.805 0 1.393 0.201 0.604 0.201 0.991 0.573 0.387 0.356 0.573 0.851 0.186 0.495 0.186 1.068 0 0.573 -0.325 1.099 -0.325 0.526 -0.867 0.805 0.743 0.31 1.146 0.913 0.418 0.604 0.418 1.44 0 0.666 -0.217 1.223 q -0.217 0.557 -0.666 0.975 -0.449 0.402 -1.146 0.635 -0.697 0.217 -1.656 0.217"/>
 </g>
 <g transform="matrix(1.0495652,0,0,1.0495652,-10.038526,-9.3369112)" style="fill:#ececec;fill-opacity:1;stroke:none">
  <path d="m 19.93 11.784 c -0.265 0.013 -0.458 0.041 -0.768 0.206 -0.31 0.165 -0.568 0.398 -0.775 0.697 -0.196 0.289 -0.342 0.685 -0.434 1.054 -0.097 0.388 -0.159 0.795 -0.119 1.193 0.061 0.605 0.145 1.279 0.538 1.743 0.384 0.455 0.894 0.806 1.596 0.806 0.114 0 0.076 -0.007 0.076 -0.007 l 0 -3.339 1.906 0 0 4.571 c -0.227 0.083 -0.577 0.238 -0.88 0.305 -0.411 0.091 -0.744 0.129 -1.258 0.129 -0.599 0 -1.142 -0.103 -1.627 -0.31 -0.475 -0.217 -0.883 -0.532 -1.224 -0.945 -0.341 -0.424 -0.604 -0.945 -0.79 -1.565 -0.186 -0.63 -0.219 -1.059 -0.216 -1.596 0.003 -0.603 0.046 -1.17 0.263 -1.79 0.217 -0.63 0.511 -1.157 0.883 -1.581 0.372 -0.424 0.811 -0.739 1.317 -0.945 0.506 -0.217 0.833 -0.241 1.263 -0.268 0.326 -0.021 0.654 0.027 0.977 0.078 0.262 0.042 0.558 0.114 0.775 0.186 0.217 0.072 0.393 0.15 0.527 0.232 l 0.325 0.186 -0.496 1.519 c -0.227 -0.145 -0.506 -0.274 -0.837 -0.387 -0.345 -0.134 -0.678 -0.187 -1.023 -0.17"/>
 </g>
</svg>
